X: 10622
T: Brittannias Sons at Sea
T: from Turnpike Gate, A comic opera in two acts, 1799
C: William Reeve
Q: "Moderato"
B: "Man of Feeling", Gaetano Brandi, ed. v.1 p.64-66
F: http://archive.org/details/manoffeelingorge00rugg
Z: 2012 John Chambers <jc:trillian.mit.edu>
M: 2/4
L: 1/16
P: Duetto
K: C
%%continueall
[V:1] c4 e2 c2 | d2 e2 f4 | e4 c2 e2 | d2 B2 G4 | c4 e2 c2 |
w: Bri-ta-nias Sons at Sea in Bat-tle al-ways brave, strike to no
[V:2] E4 G2 E2 | G2 c2 d4 | G4 E2 G2 | B2 G2 G4 | E4 G2 c2 |
[V:1] d2 e2 f2 d2 | e2 e2 ^f2 f2 | g8 | g2 g g b a g ^f |
w: pow'r d'ye see, that ev-er plough'd the wave, Fal lal de rid-dle lid-dle
[V:2] B2 c2 d2 B2 | c2 c2  A2 A2 | B8 | B2 B B d c B A |
[V:1] g2 G2 z4 | g4 f2  e2 | f2 g2 a4 | f4 e2 d2 | e2 f2 Hg4 |
w: li do,  But when we're not a-float ('tis quite a-no-ther thing,)
[V:2] B2 B2 z4 | e4 d2 ^c2 | d2 e2 f4 | d4 c2 B2 | c2 d2 He4 |
% p.65
[V:1] c4 c2 B2 | A2 B2 c2 ^c2 | d2 e2 f2 d2 | (c4 B2) z2 |
w: We strike to Pet-ti-coat get grog-gy dance and sing*
[V:2] E4 E2 G2 | F2 G2 A2  G2 | F2 G2 A2 F2 | (E4 D2) z2 |
[V:1] c2 c e d2 d f | e2 e g f2 f a | g2 g a g a g f | e2 g2 g4 |
w: Fal lal de ral lal de ral lal de ral lal de ral lal de rad-dle lid-dle lal tal la
[V:2] E2 E c B2 B d | c2 c e d2 d f | e2 e f e f e d | c2 e2 e4 |
[V:1] c'2 g a g f e d | e2 c2 c2 eg | c'2eg c'2eg | c'4 c4 | "_Da Capo"c8 |]
w: Ri tol de rid-dle lid-dle li tol to!
[V:2]  e2 e f e d c B | c2 E2 E2 ce |  e2ce  e2ce |  e4 E4 | E8 |]
%
W: 2. There's Portsmouth Polly she,
W: \t When forc'd to go ashore;
W: Vow'd constancy to me,
W: \t And sometimes twenty more.
W: \t \t \t Fal lal &c.
W: But give poor Poll her due,
W: \t For truth's a precioas thing,
W: With none but Sailors true,
W: \t Wou'd she drink grog and sing.
W: \t \t \t Fal lal &c.
W:
W: 3. With Nancy deep in love,
W: \t I once to Sea did go;
W: Return'd she cry'd by Jove,
W: \t Im' married dearest Joe.
W: \t \t \t Fal lal &c.
W: Great guns I scarce could hold,
W: \t To find that I was flung,
W: But Nancy prov't a scold;
W: \t Then I got drunk and sung.
W: \t \t \t Fal lal &c.
W:
W: 4.  At length I did comply,
W: \t And made a rib of Sue;
W: What tho she'd but one eye,
W: \t It peirc'd my heart like two.
W: \t \t \t Fal lal &c.
W: And now I take my glass,
W: \t Drink England and my King;
W: Content with my old Lass,
W: \t Get groggy dance and sing.
W: \t \t \t Fal lal &c.
%
%%center -

% Continuation of previous page.

% Continuation of previous page.

%%sep 2 1 500
%%sep 1 1 500

